src/assets/foodIcons/salad-icon.svg

<svg class="iconPrimary" width="32" height="40" viewBox="0 0 32 40" fill="none" xmlns="http://www.w3.org/2000/svg">
<path d="M0.799805 23.6422C0.799805 32.1102 7.61661 39 15.9998 39C17.9963 39.0014 19.9734 38.6051 21.8182 37.8338C23.663 37.0625 25.3391 35.9313 26.7508 34.5049C28.1626 33.0785 29.2821 31.3849 30.0455 29.521C30.8089 27.6571 31.2011 25.6594 31.1998 23.6422C31.1996 23.4735 31.1332 23.3118 31.0151 23.1925C30.897 23.0732 30.7369 23.0061 30.57 23.0059H1.42962C1.26264 23.0061 1.10256 23.0732 0.984489 23.1925C0.866419 23.3118 0.800001 23.4735 0.799805 23.6422ZM29.9261 24.2786C29.8837 25.2336 29.7454 26.1817 29.5134 27.1085H2.4877C2.25429 26.1819 2.1155 25.2337 2.07351 24.2786H29.9261ZM2.62923 27.6325H29.3711C28.5188 30.5477 26.756 33.106 24.3461 34.9254C21.9361 36.7449 19.0082 37.7278 15.9998 37.7273C9.68388 37.7273 4.33639 33.4615 2.62923 27.6325Z" fill="currentColor"/>
<path d="M20.3819 34.9049C21.8032 34.2856 23.0667 33.3482 24.077 32.1633C24.1219 32.1106 24.1857 32.0781 24.2543 32.0729C24.323 32.0677 24.3909 32.0903 24.443 32.1356C24.4952 32.181 24.5274 32.2454 24.5326 32.3148C24.5377 32.3842 24.5154 32.4527 24.4705 32.5055C23.4072 33.7507 22.0781 34.736 20.5834 35.387C20.551 35.4008 20.5163 35.408 20.4811 35.408C20.4213 35.4081 20.3633 35.3874 20.3169 35.3492C20.2705 35.3111 20.2385 35.2579 20.2265 35.1987C20.2145 35.1394 20.2231 35.0778 20.2508 35.0243C20.2786 34.9708 20.3238 34.9286 20.3789 34.9049H20.3819Z" fill="currentColor"/>
<path d="M28.8389 9.24721C30.0578 7.94681 29.7458 6.02802 29.7317 5.95315C29.7127 5.84235 29.665 5.73861 29.5934 5.6525C29.5218 5.56639 29.429 5.50099 29.3242 5.46295C29.2195 5.42491 29.1066 5.41559 28.9972 5.43594C28.8877 5.4563 28.7855 5.5056 28.7011 5.57883L25.9358 7.97525L26.7738 3.77683C26.7962 3.66483 26.7883 3.54882 26.751 3.44097C26.7137 3.33312 26.6483 3.23741 26.5617 3.16389C26.4752 3.09038 26.3706 3.04176 26.2591 3.02315C26.1475 3.00454 26.033 3.01662 25.9277 3.05812C25.8447 3.09031 23.8804 3.88164 23.3343 5.77497C23.0839 6.63891 23.1698 7.56724 23.5877 8.54498C23.0481 8.45955 22.4963 8.50028 21.9747 8.66401C21.0655 8.96347 20.369 9.65522 19.9052 10.7176C19.7642 11.0502 19.6441 11.3915 19.5458 11.7395C19.5458 11.747 19.5414 11.7552 19.5391 11.7627C18.8463 14.1539 18.4477 18.1636 18.5233 20.2718C18.5342 20.6185 18.6422 20.9549 18.8348 21.2421C19.0273 21.5292 19.2964 21.7553 19.611 21.8942C19.8443 21.9988 20.0967 22.0531 20.352 22.0536C20.7836 22.0532 21.2011 21.8974 21.5293 21.6142C22.4859 20.7951 23.7989 19.4184 24.957 18.0206C25.8543 16.9366 26.5916 15.9244 27.0887 15.0934C27.2738 14.7899 27.4396 14.4748 27.5852 14.1501C28.0498 13.0885 28.0861 12.1033 27.6934 11.2221C27.5273 10.8561 27.2985 10.5226 27.0176 10.2369C27.7652 10.0722 28.3743 9.74282 28.8389 9.24721ZM24.6436 10.2205L24.6629 10.2302L24.6851 10.2414L24.7051 10.2512H24.711L24.7251 10.2564L24.7503 10.2661L24.7636 10.2714C24.7888 10.2796 26.0973 10.725 26.5486 11.7499C26.7887 12.2942 26.7516 12.9111 26.4345 13.6358C26.3426 13.8408 26.2399 14.0407 26.127 14.2347L25.0785 13.6695C25.0484 13.6521 25.0152 13.6409 24.9807 13.6367C24.9463 13.6325 24.9114 13.6353 24.878 13.645C24.8447 13.6547 24.8136 13.671 24.7866 13.6931C24.7597 13.7151 24.7373 13.7424 24.721 13.7733C24.7046 13.8042 24.6946 13.8381 24.6914 13.873C24.6882 13.9079 24.692 13.9431 24.7026 13.9765C24.7131 14.0099 24.7302 14.0408 24.7528 14.0674C24.7753 14.094 24.803 14.1158 24.834 14.1314L25.8573 14.6832C25.306 15.5336 24.7037 16.3492 24.0538 17.1253L22.0376 16.1872C21.9752 16.1581 21.9038 16.1553 21.8392 16.1794C21.7747 16.2034 21.7223 16.2524 21.6935 16.3156C21.6647 16.3787 21.6619 16.4508 21.6857 16.5161C21.7096 16.5813 21.7581 16.6342 21.8205 16.6633L23.707 17.5452C22.6697 18.7708 21.5449 19.9364 20.7165 20.6454C20.6352 20.7153 20.5361 20.7606 20.4305 20.7762C20.3249 20.7917 20.2171 20.7769 20.1195 20.7333C20.0219 20.6898 19.9384 20.6193 19.8786 20.53C19.8188 20.4407 19.7851 20.3362 19.7814 20.2284C19.7125 18.3126 20.0534 14.7535 20.6565 12.4544L22.6682 13.367C22.7015 13.3823 22.7376 13.3902 22.7742 13.3902C22.8335 13.3902 22.891 13.3697 22.9371 13.3321C22.9832 13.2944 23.0152 13.2419 23.0277 13.1833C23.0402 13.1248 23.0324 13.0636 23.0057 13.0102C22.979 12.9567 22.9349 12.914 22.8809 12.8894L20.8002 11.9453C20.8724 11.7047 20.9578 11.4682 21.0559 11.2371C21.373 10.5124 21.7968 10.0692 22.3585 9.88207C23.418 9.52496 24.631 10.2085 24.6436 10.2167V10.2205ZM25.2423 5.01659L24.6717 7.87194C24.4361 7.24158 24.3909 6.66362 24.5391 6.14331C24.6713 5.7107 24.9138 5.32084 25.2423 5.01285V5.01659ZM28.3943 7.52307C28.3051 7.84215 28.1421 8.13521 27.9186 8.37803C27.6222 8.69396 27.209 8.90383 26.679 9.00764L28.3943 7.52307Z" fill="currentColor"/>
<path d="M12.2047 12.3503C11.274 10.0295 9.1623 8.50146 7.00982 8.50146H6.94981C6.94314 8.48349 6.93573 8.46478 6.92832 8.44681C6.50523 7.40095 5.22782 6.93379 4.07564 7.40544C3.54526 7.61674 3.10733 8.013 2.8412 8.52242C2.70814 8.77157 2.63076 9.04715 2.6145 9.32977C2.59825 9.6124 2.64351 9.89518 2.7471 10.1582C2.83335 10.3744 2.95902 10.5722 3.11758 10.7414C2.19212 12.2769 2.05949 14.3477 2.80045 16.2013C3.73183 18.5221 5.81466 20.0471 7.97825 20.0509C8.31465 20.6101 8.94669 20.9343 9.62985 20.9343C9.91954 20.9338 10.2064 20.8766 10.4745 20.7658C11.5326 20.3331 12.0787 19.1937 11.6919 18.2324C11.6808 18.2062 11.6697 18.18 11.6578 18.1538C12.793 16.5914 13.0153 14.3709 12.2047 12.3503ZM10.4079 17.6896C10.2996 17.8097 10.2411 17.9672 10.2443 18.1295C10.2475 18.2919 10.3121 18.4469 10.4249 18.5626C10.467 18.6054 10.5003 18.6563 10.5227 18.7123C10.6464 19.02 10.4071 19.4213 10.004 19.5882C9.60095 19.7552 9.14823 19.6354 9.02449 19.3269C9.01618 19.3037 9.0095 19.28 9.00448 19.2558C8.97082 19.104 8.88322 18.9699 8.75826 18.879C8.63331 18.7881 8.47969 18.7466 8.3265 18.7625C6.54821 18.9444 4.76028 17.6949 3.97042 15.7252C3.30356 14.0662 3.5051 12.2125 4.48094 11.0034C4.54157 10.9284 4.58443 10.8403 4.60625 10.7459C4.62807 10.6515 4.62826 10.5534 4.60682 10.4589C4.58537 10.3644 4.54286 10.2762 4.48252 10.2008C4.42219 10.1255 4.34561 10.0651 4.25865 10.0242C4.10599 9.95792 3.98409 9.83529 3.91781 9.68133C3.88468 9.58778 3.8717 9.48816 3.87975 9.38913C3.8878 9.2901 3.91669 9.19395 3.96449 9.10712C4.09196 8.86673 4.30079 8.68071 4.55281 8.58306C5.05222 8.37793 5.60645 8.53365 5.76279 8.9222C5.79248 8.99892 5.80635 9.08095 5.80355 9.16327C5.8011 9.25619 5.81885 9.34852 5.85555 9.43375C5.89225 9.51899 5.94701 9.59505 6.01596 9.65659C6.08492 9.71812 6.16639 9.76362 6.25464 9.78989C6.34289 9.81615 6.43576 9.82254 6.52672 9.8086C6.69053 9.78346 6.85599 9.77095 7.02168 9.77117C8.66809 9.77117 10.3034 10.987 11.0414 12.8257C11.7379 14.5745 11.4904 16.4828 10.4079 17.6896Z" fill="currentColor"/>
<path d="M9.61737 16.8586C9.58195 16.8765 9.54287 16.8857 9.50327 16.8856C9.44481 16.8853 9.38816 16.8651 9.34251 16.8282C9.29685 16.7913 9.26486 16.7399 9.25174 16.6824C9.23861 16.6248 9.24512 16.5645 9.2702 16.5111C9.29527 16.4578 9.33746 16.4146 9.3899 16.3885C9.74053 16.2136 10.0082 15.9053 10.1342 15.5313C10.2602 15.1573 10.2342 14.748 10.0619 14.3933C10.033 14.331 10.0295 14.2597 10.0521 14.1948C10.0747 14.1299 10.1217 14.0766 10.1829 14.0464C10.2441 14.0163 10.3146 14.0116 10.3792 14.0335C10.4438 14.0554 10.4972 14.1021 10.528 14.1635C10.643 14.4012 10.7106 14.6596 10.7268 14.9237C10.743 15.1879 10.7075 15.4526 10.6224 15.7029C10.5372 15.9532 10.4042 16.1841 10.2307 16.3824C10.0572 16.5807 9.84682 16.7425 9.61144 16.8586H9.61737Z" fill="currentColor"/>
<path d="M15.4063 20.819C15.4061 21.0582 15.4762 21.2921 15.6076 21.491C15.739 21.69 15.9259 21.8451 16.1446 21.9367C16.3633 22.0283 16.604 22.0523 16.8362 22.0057C17.0684 21.959 17.2817 21.8439 17.4491 21.6747C17.6164 21.5056 17.7304 21.2901 17.7766 21.0555C17.8227 20.8209 17.799 20.5777 17.7083 20.3568C17.6176 20.1358 17.4642 19.947 17.2673 19.8142C17.0704 19.6814 16.8389 19.6106 16.6022 19.6107C16.2852 19.6113 15.9813 19.7388 15.7572 19.9653C15.533 20.1918 15.4068 20.4988 15.4063 20.819ZM15.9249 20.819C15.9249 20.6835 15.9647 20.5511 16.0392 20.4384C16.1138 20.3257 16.2197 20.2379 16.3436 20.1861C16.4675 20.1343 16.6039 20.1207 16.7354 20.1472C16.867 20.1737 16.9878 20.2391 17.0826 20.3349C17.1773 20.4308 17.2419 20.5529 17.2679 20.6859C17.294 20.8188 17.2805 20.9565 17.229 21.0817C17.1776 21.2069 17.0906 21.3138 16.979 21.389C16.8674 21.4642 16.7363 21.5042 16.6022 21.5041C16.4225 21.5039 16.2502 21.4316 16.1232 21.3032C15.9962 21.1747 15.9249 21.0006 15.9249 20.819Z" fill="currentColor"/>
<path d="M10.5717 5.41708C10.5717 5.13789 10.4898 4.86496 10.3363 4.6328C10.1828 4.40064 9.96468 4.21966 9.70942 4.11275C9.45416 4.00584 9.17325 3.97779 8.90222 4.03215C8.63118 4.08651 8.38218 4.22083 8.18668 4.41815C7.99119 4.61547 7.85798 4.86691 7.80389 5.14071C7.7498 5.4145 7.77726 5.69835 7.88281 5.95637C7.98835 6.2144 8.16723 6.43502 8.39684 6.59035C8.62646 6.74568 8.89649 6.82874 9.17282 6.82903C9.54358 6.82903 9.89918 6.68032 10.1615 6.41557C10.4238 6.15082 10.5714 5.79169 10.5717 5.41708ZM10.0531 5.41708C10.0532 5.59266 10.0018 5.76434 9.90544 5.91042C9.80903 6.0565 9.67192 6.17042 9.51145 6.23778C9.35097 6.30514 9.17433 6.32292 9.00386 6.28887C8.83339 6.25481 8.67673 6.17046 8.5537 6.04646C8.43067 5.92247 8.34678 5.7644 8.31265 5.59224C8.27851 5.42008 8.29566 5.24157 8.36192 5.07925C8.42819 4.91694 8.54059 4.77812 8.68493 4.68035C8.82926 4.58257 8.99905 4.53023 9.17282 4.52993C9.40595 4.52973 9.62963 4.62306 9.79469 4.78942C9.95974 4.95577 10.0527 5.18153 10.0531 5.41708Z" fill="currentColor"/>
<path d="M30.7574 17.1005C30.7575 16.7992 30.6692 16.5047 30.5036 16.2541C30.338 16.0035 30.1025 15.8082 29.827 15.6929C29.5515 15.5776 29.2483 15.5475 28.9559 15.6064C28.6634 15.6652 28.3948 15.8104 28.1841 16.0236C27.9733 16.2367 27.8299 16.5083 27.7719 16.8038C27.7139 17.0994 27.7441 17.4056 27.8585 17.6839C27.9728 17.9621 28.1664 18.1999 28.4145 18.3669C28.6627 18.534 28.9543 18.623 29.2525 18.6225C29.6516 18.6215 30.034 18.4608 30.316 18.1756C30.5981 17.8903 30.7568 17.5037 30.7574 17.1005ZM30.2387 17.1005C30.2387 17.2981 30.1807 17.4913 30.072 17.6556C29.9633 17.8199 29.8088 17.9479 29.628 18.0234C29.4473 18.0989 29.2484 18.1186 29.0566 18.0799C28.8648 18.0412 28.6887 17.9458 28.5506 17.8059C28.4124 17.666 28.3184 17.4879 28.2806 17.294C28.2427 17.1001 28.2626 16.8992 28.3377 16.7168C28.4129 16.5343 28.5399 16.3785 28.7027 16.269C28.8656 16.1596 29.0569 16.1014 29.2525 16.1018C29.5142 16.1026 29.7649 16.2082 29.9498 16.3954C30.1346 16.5825 30.2385 16.8361 30.2387 17.1005Z" fill="currentColor"/>
<path d="M2.68652 20.2988C2.68638 20.4666 2.73549 20.6306 2.82765 20.7702C2.9198 20.9098 3.05086 21.0186 3.20425 21.083C3.35764 21.1473 3.52646 21.1642 3.68935 21.1315C3.85225 21.0989 4.0019 21.0182 4.11938 20.8996C4.23687 20.781 4.31689 20.6298 4.34935 20.4653C4.3818 20.3007 4.36522 20.1301 4.3017 19.9751C4.23818 19.8201 4.13058 19.6875 3.99251 19.5943C3.85444 19.5011 3.6921 19.4513 3.52603 19.4513C3.30357 19.4515 3.09026 19.5408 2.93289 19.6997C2.77551 19.8586 2.68692 20.074 2.68652 20.2988ZM3.20519 20.2988C3.20519 20.2347 3.22401 20.172 3.25926 20.1187C3.29452 20.0654 3.34463 20.0238 3.40325 19.9993C3.46187 19.9747 3.52638 19.9683 3.58862 19.9808C3.65086 19.9933 3.70802 20.0242 3.75289 20.0695C3.79776 20.1149 3.82832 20.1726 3.8407 20.2355C3.85308 20.2984 3.84672 20.3636 3.82244 20.4228C3.79816 20.4821 3.75703 20.5327 3.70427 20.5683C3.65151 20.6039 3.58948 20.6229 3.52603 20.6229C3.44094 20.6229 3.35933 20.5888 3.29916 20.528C3.239 20.4672 3.20519 20.3847 3.20519 20.2988Z" fill="currentColor"/>
<path d="M21.7972 3.45564C21.7972 3.28785 21.7479 3.12382 21.6556 2.98432C21.5634 2.84481 21.4322 2.7361 21.2788 2.67192C21.1253 2.60774 20.9565 2.59099 20.7936 2.62378C20.6307 2.65656 20.4812 2.73742 20.3638 2.85613C20.2464 2.97483 20.1665 3.12603 20.1342 3.29062C20.1019 3.45521 20.1186 3.62578 20.1823 3.78076C20.2459 3.93574 20.3537 4.06816 20.4918 4.16128C20.63 4.25439 20.7923 4.30401 20.9584 4.30386C21.1809 4.30347 21.3941 4.21395 21.5513 4.05494C21.7086 3.89593 21.797 3.68041 21.7972 3.45564ZM21.2785 3.45564C21.2785 3.51979 21.2597 3.58249 21.2244 3.63582C21.1891 3.68914 21.1389 3.73069 21.0803 3.7552C21.0216 3.77972 20.9571 3.78609 20.8948 3.77352C20.8325 3.76095 20.7754 3.73001 20.7305 3.6846C20.6857 3.63919 20.6552 3.58135 20.6429 3.51842C20.6306 3.45549 20.6371 3.39029 20.6615 3.33107C20.6859 3.27185 20.7271 3.22127 20.78 3.18574C20.8328 3.15021 20.8949 3.13133 20.9584 3.13148C21.0434 3.13168 21.1248 3.16592 21.1848 3.22669C21.2448 3.28746 21.2785 3.3698 21.2785 3.45564Z" fill="currentColor"/>
<path d="M16.7762 12.6947C17.9158 11.1719 19.1598 8.8324 18.5826 6.3394C18.104 4.25515 16.4435 2.4816 13.6493 1.0674C13.5741 1.02951 13.4921 1.00721 13.4083 1.00179C13.3244 0.996368 13.2403 1.00795 13.1609 1.03585C13.0815 1.06375 13.0084 1.10741 12.946 1.16425C12.8835 1.2211 12.8329 1.28998 12.7972 1.36686C11.9822 3.1187 11.2634 4.85033 11.4635 6.77062C11.6902 8.97015 13.1144 10.9915 15.8174 12.9507C15.8688 12.9879 15.9255 13.0169 15.9856 13.0368C15.8952 14.4278 15.6232 15.6182 15.189 16.5091C15.1739 16.5399 15.165 16.5735 15.1628 16.6079C15.1605 16.6422 15.165 16.6767 15.1759 16.7093C15.1869 16.7419 15.2041 16.772 15.2265 16.7979C15.249 16.8238 15.2763 16.8449 15.3068 16.8602C15.3427 16.8777 15.3819 16.8869 15.4217 16.8871C15.4701 16.8871 15.5175 16.8734 15.5586 16.8476C15.5997 16.8218 15.6329 16.7849 15.6544 16.7411C16.1278 15.7679 16.4205 14.478 16.5102 12.9777C16.5765 12.9375 16.6348 12.8852 16.6821 12.8235C16.7132 12.783 16.7458 12.7404 16.7784 12.6962L16.7762 12.6947ZM16.499 10.829C16.3827 9.01058 16.0004 7.21382 15.4328 5.90742C15.4195 5.8753 15.4001 5.84617 15.3756 5.82173C15.351 5.79729 15.3219 5.77803 15.29 5.76508C15.258 5.75213 15.2238 5.74575 15.1893 5.74631C15.1549 5.74686 15.1209 5.75434 15.0893 5.76832C15.0578 5.78229 15.0293 5.80248 15.0056 5.8277C14.9818 5.85291 14.9633 5.88266 14.9511 5.91519C14.9388 5.94773 14.9331 5.9824 14.9343 6.01719C14.9354 6.05197 14.9435 6.08617 14.9579 6.1178C15.5699 7.52825 15.9574 9.53613 16.0115 11.5081C13.9672 9.90896 12.8869 8.31284 12.7142 6.63736C12.5712 5.24637 13.0469 3.88682 13.6604 2.51155C15.7551 3.68468 16.9985 5.06744 17.3578 6.62912C17.7061 8.1369 17.1911 9.62746 16.499 10.829Z" fill="currentColor"/>
</svg>

<svg xmlns="http://www.w3.org/2000/svg" width="32" height="40" fill="none" class="iconPrimary" viewBox="0 0 32 40">
    <path fill="currentColor" d="M.8 23.642C.8 32.11 7.617 39 16 39a15.054 15.054 0 0 0 5.818-1.166 15.179 15.179 0 0 0 4.933-3.33 15.358 15.358 0 0 0 3.294-4.983 15.487 15.487 0 0 0 1.155-5.879.64.64 0 0 0-.185-.45.627.627 0 0 0-.445-.186H1.43a.627.627 0 0 0-.446.186.64.64 0 0 0-.184.45Zm29.126.637c-.042.955-.18 1.903-.413 2.83H2.488a14.125 14.125 0 0 1-.414-2.83h27.852ZM2.63 27.633h26.742a14.086 14.086 0 0 1-5.025 7.292A13.845 13.845 0 0 1 16 37.727c-6.316 0-11.664-4.265-13.37-10.094Z"/>
    <path fill="currentColor" d="M20.382 34.905a10.225 10.225 0 0 0 3.695-2.742.259.259 0 0 1 .456.152.264.264 0 0 1-.063.19 10.766 10.766 0 0 1-3.887 2.882.26.26 0 0 1-.332-.363.26.26 0 0 1 .128-.12h.003ZM28.839 9.247c1.219-1.3.907-3.219.893-3.294a.64.64 0 0 0-.408-.49.624.624 0 0 0-.623.116l-2.765 2.396.838-4.198a.642.642 0 0 0-.212-.613.627.627 0 0 0-.634-.106c-.083.032-2.048.824-2.594 2.717-.25.864-.164 1.792.254 2.77a3.537 3.537 0 0 0-1.613.119c-.91.3-1.606.991-2.07 2.054a8.626 8.626 0 0 0-.36 1.021c0 .008-.004.016-.006.024-.693 2.39-1.091 6.4-1.016 8.509.011.347.12.683.312.97.192.287.461.513.776.652a1.805 1.805 0 0 0 1.918-.28c.957-.819 2.27-2.196 3.428-3.593.897-1.084 1.635-2.097 2.132-2.928.185-.303.35-.618.496-.943.465-1.062.501-2.047.108-2.928a3.422 3.422 0 0 0-.675-.985c.747-.165 1.356-.494 1.82-.99Zm-4.195.973.019.01.022.011.02.01h.006l.014.005.025.01.014.005c.025.009 1.333.454 1.785 1.479.24.544.203 1.161-.114 1.886a6.378 6.378 0 0 1-.308.599l-1.049-.566a.258.258 0 0 0-.387.204.263.263 0 0 0 .143.258l1.023.552a24.908 24.908 0 0 1-1.803 2.442l-2.016-.938a.257.257 0 0 0-.345.129.265.265 0 0 0 .127.347l1.887.882c-1.037 1.226-2.162 2.391-2.99 3.1a.565.565 0 0 1-.936-.417c-.069-1.915.272-5.475.876-7.774l2.011.913a.254.254 0 0 0 .27-.035.263.263 0 0 0-.057-.443l-2.08-.944c.071-.24.157-.477.255-.708.317-.725.74-1.168 1.302-1.355 1.06-.357 2.273.327 2.286.335v.003Zm.598-5.203-.57 2.855c-.236-.63-.281-1.208-.133-1.729.132-.432.375-.822.703-1.13v.004Zm3.152 2.506c-.089.32-.252.612-.475.855-.297.316-.71.526-1.24.63l1.715-1.485ZM12.205 12.35c-.931-2.32-3.043-3.849-5.195-3.849h-.06a1.67 1.67 0 0 0-.022-.054c-.423-1.046-1.7-1.513-2.852-1.042-.53.212-.969.608-1.235 1.117a1.952 1.952 0 0 0-.094 1.636c.086.216.212.414.37.583-.925 1.536-1.058 3.607-.317 5.46.932 2.321 3.015 3.846 5.178 3.85.337.56.969.883 1.652.883.29 0 .576-.057.845-.168 1.058-.433 1.604-1.572 1.217-2.534l-.034-.078c1.135-1.563 1.357-3.783.547-5.804Zm-1.797 5.34a.638.638 0 0 0 .017.873.454.454 0 0 1 .098.15c.123.307-.116.708-.519.875-.403.167-.856.047-.98-.261a.53.53 0 0 1-.02-.071.636.636 0 0 0-.246-.377.624.624 0 0 0-.431-.117c-1.779.182-3.567-1.067-4.357-3.037-.666-1.659-.465-3.512.51-4.722a.638.638 0 0 0-.221-.979.656.656 0 0 1-.341-.343.704.704 0 0 1 .046-.574c.128-.24.337-.426.589-.524.5-.205 1.053-.05 1.21.34a.61.61 0 0 1 .04.24.641.641 0 0 0 .213.494.627.627 0 0 0 .51.152c.165-.026.33-.038.496-.038 1.646 0 3.281 1.216 4.02 3.055.696 1.748.448 3.657-.634 4.864Z"/>
    <path fill="currentColor" d="M9.617 16.859a.251.251 0 0 1-.274-.03.263.263 0 0 1 .047-.44c.35-.175.618-.484.744-.858s.1-.783-.072-1.138a.265.265 0 0 1 .12-.347.257.257 0 0 1 .346.118 2.032 2.032 0 0 1-.297 2.218c-.174.199-.384.36-.62.477h.006ZM15.406 20.819c0 .24.07.473.202.672a1.186 1.186 0 0 0 1.842.184 1.214 1.214 0 0 0 .258-1.318 1.206 1.206 0 0 0-.44-.543 1.188 1.188 0 0 0-1.51.151c-.225.227-.351.534-.352.854Zm.519 0a.69.69 0 0 1 .419-.633.672.672 0 0 1 .739.149.687.687 0 0 1-.48 1.17.675.675 0 0 1-.48-.202.689.689 0 0 1-.198-.484ZM10.572 5.417c0-.28-.082-.552-.236-.784a1.384 1.384 0 0 0-2.15-.215 1.417 1.417 0 0 0-.303 1.538c.105.258.284.479.514.634a1.387 1.387 0 0 0 1.764-.174 1.42 1.42 0 0 0 .41-.999Zm-.519 0a.895.895 0 0 1-.542.82.87.87 0 0 1-.957-.19.89.89 0 0 1-.192-.968.886.886 0 0 1 .81-.55c.234 0 .458.094.623.26a.893.893 0 0 1 .258.628ZM30.757 17.1c0-.3-.088-.595-.253-.846a1.51 1.51 0 0 0-.677-.561 1.492 1.492 0 0 0-1.643.33 1.528 1.528 0 0 0-.326 1.66c.115.28.308.517.556.684a1.496 1.496 0 0 0 1.902-.191c.282-.286.44-.672.441-1.075Zm-.518 0c0 .198-.058.391-.167.556a.99.99 0 0 1-1.015.424 1 1 0 0 1-.719-1.363.982.982 0 0 1 1.612-.321c.185.187.288.44.289.705ZM2.687 20.299a.854.854 0 0 0 .517.784.831.831 0 0 0 .915-.183.851.851 0 0 0-.593-1.449.836.836 0 0 0-.593.249.854.854 0 0 0-.246.599Zm.518 0a.327.327 0 0 1 .198-.3.317.317 0 0 1 .35.07.325.325 0 0 1-.227.554.32.32 0 0 1-.227-.095.326.326 0 0 1-.094-.23ZM21.797 3.456a.854.854 0 0 0-.518-.784.832.832 0 0 0-.915.184.85.85 0 0 0-.182.925.846.846 0 0 0 .776.523c.223 0 .436-.09.593-.25a.853.853 0 0 0 .246-.598Zm-.518 0a.326.326 0 0 1-.199.3.318.318 0 0 1-.35-.071.326.326 0 0 1 .228-.554.32.32 0 0 1 .227.096c.06.06.094.143.094.229ZM16.776 12.695c1.14-1.523 2.384-3.863 1.807-6.356-.479-2.084-2.14-3.857-4.934-5.272a.625.625 0 0 0-.852.3c-.815 1.752-1.534 3.483-1.334 5.404.227 2.2 1.651 4.22 4.354 6.18a.618.618 0 0 0 .169.086c-.09 1.39-.363 2.581-.797 3.472a.263.263 0 0 0 .233.378.257.257 0 0 0 .232-.146c.474-.973.767-2.263.856-3.763a.625.625 0 0 0 .172-.155c.031-.04.064-.083.096-.127l-.002-.001Zm-.277-1.866c-.116-1.818-.499-3.615-1.066-4.922a.263.263 0 0 0-.143-.142.257.257 0 0 0-.339.15.263.263 0 0 0 .007.203c.612 1.41 1 3.418 1.054 5.39-2.045-1.599-3.125-3.195-3.298-4.87-.143-1.392.333-2.751.946-4.126 2.095 1.173 3.338 2.555 3.698 4.117.348 1.508-.167 2.998-.859 4.2Z"/>
</svg>
